en/_assets/smartwebsecurity/arl.svg

<svg width="18" height="18" viewBox="0 0 18 18" fill="none" xmlns="http://www.w3.org/2000/svg">
<mask id="path-1-inside-1_699_12004" fill="white">
<path fill-rule="evenodd" clip-rule="evenodd" d="M13.9517 15.75C14.4561 15.75 14.9497 15.5662 15.2863 15.1905C16.624 13.6974 17.4375 11.725 17.4375 9.5625C17.4375 4.9026 13.6599 1.125 9 1.125C4.3401 1.125 0.5625 4.9026 0.5625 9.5625C0.5625 11.725 1.376 13.6974 2.71365 15.1905C3.05025 15.5662 3.54385 15.75 4.04829 15.75H13.9517Z"/>
</mask>
<path d="M15.2863 15.1905L14.1691 14.1896L15.2863 15.1905ZM15.9375 9.5625C15.9375 11.3415 15.2699 12.9609 14.1691 14.1896L16.4036 16.1914C17.9781 14.4339 18.9375 12.1084 18.9375 9.5625H15.9375ZM9 2.625C12.8315 2.625 15.9375 5.73102 15.9375 9.5625H18.9375C18.9375 4.07417 14.4883 -0.375 9 -0.375V2.625ZM2.0625 9.5625C2.0625 5.73102 5.16852 2.625 9 2.625V-0.375C3.51167 -0.375 -0.9375 4.07417 -0.9375 9.5625H2.0625ZM3.83088 14.1896C2.73013 12.9609 2.0625 11.3415 2.0625 9.5625H-0.9375C-0.9375 12.1084 0.0218636 14.4339 1.59643 16.1914L3.83088 14.1896ZM4.04829 17.25H13.9517V14.25H4.04829V17.25ZM1.59643 16.1914C2.26536 16.9381 3.19472 17.25 4.04829 17.25V14.25C3.89297 14.25 3.83514 14.1944 3.83088 14.1896L1.59643 16.1914ZM14.1691 14.1896C14.1649 14.1944 14.107 14.25 13.9517 14.25V17.25C14.8053 17.25 15.7346 16.9381 16.4036 16.1914L14.1691 14.1896Z" fill="#586A7A" mask="url(#path-1-inside-1_699_12004)"/>
<path d="M12.0937 7.03125L8.15625 9.84375L9.28125 10.9687L12.0937 7.03125Z" stroke="#586A7A" stroke-width="1.5" stroke-linecap="round" stroke-linejoin="round"/>
</svg>

<svg xmlns="http://www.w3.org/2000/svg" width="18" height="18" fill="none" viewBox="0 0 18 18">
    <mask id="path-1-inside-1_699_12004" fill="#fff">
        <path fill-rule="evenodd" d="M13.952 15.75c.504 0 .998-.184 1.334-.56a8.438 8.438 0 1 0-12.573 0c.337.376.83.56 1.335.56h9.904Z" clip-rule="evenodd"/>
    </mask>
    <path fill="#586A7A" d="m15.286 15.19-1.117-1 1.117 1Zm.652-5.627a6.906 6.906 0 0 1-1.769 4.627l2.235 2.001a9.906 9.906 0 0 0 2.534-6.628h-3ZM9 2.625a6.937 6.937 0 0 1 6.938 6.938h3c0-5.489-4.45-9.938-9.938-9.938v3ZM2.062 9.563A6.937 6.937 0 0 1 9 2.625v-3c-5.488 0-9.938 4.45-9.938 9.938h3Zm1.769 4.627a6.906 6.906 0 0 1-1.768-4.627h-3c0 2.545.959 4.87 2.533 6.628l2.235-2.001Zm.217 3.06h9.904v-3H4.048v3Zm-2.452-1.059c.67.747 1.599 1.059 2.452 1.059v-3c-.155 0-.213-.056-.217-.06l-2.235 2ZM14.17 14.19c-.004.004-.062.06-.217.06v3c.853 0 1.783-.312 2.452-1.059L14.17 14.19Z" mask="url(#path-1-inside-1_699_12004)"/>
    <path stroke="#586A7A" stroke-linecap="round" stroke-linejoin="round" stroke-width="1.5" d="M12.094 7.031 8.156 9.844l1.125 1.125 2.813-3.938Z"/>
</svg>
